Newaita/actions/24/object-ungroup.svg

<svg height="24" viewBox="0 0 24 24" width="24" xmlns="http://www.w3.org/2000/svg"><g fill="#424242"><path d="m6.449219 13.085938c-.273438 0-.496094.222656-.496094.496093v3.96875c0 .277344.222656.496094.496094.496094h3.96875c.277343 0 .496093-.21875.496093-.496094v-3.96875c0-.273437-.21875-.496093-.496093-.496093zm.792969.992187h2.382812c.164062 0 .296875.132813.296875.300781v2.378906c0 .164063-.132813.296876-.296875.296876h-2.382812c-.164063 0-.296876-.132813-.296876-.296876v-2.378906c0-.167968.132813-.300781.296876-.300781zm0 0"/><path d="m3.96875 2.171875c-1.097656 0-1.984375.886719-1.984375 1.984375v3.96875h1.984375v-2.976562c0-.550782.441406-.992188.992188-.992188h2.976562v-1.984375zm11.90625 0v1.984375h2.976562c.550782 0 .992188.441406.992188.992188v2.976562h1.988281v-3.96875c0-1.097656-.886719-1.984375-1.988281-1.984375zm-13.890625 13.890625v3.96875c0 1.101562.886719 1.988281 1.984375 1.988281h3.96875v-1.988281h-2.976562c-.550782 0-.992188-.441406-.992188-.992188v-2.976562zm17.859375 0v2.976562c0 .550782-.441406.992188-.992188.992188h-2.976562v1.988281h3.96875c1.101562 0 1.988281-.886719 1.988281-1.988281v-3.96875zm0 0"/><path d="m8.4375 6.121094c-.195312 0-.375.109375-.464844.285156l-1.984375 3.96875c-.078125.160156-.070312.351562.023438.5.09375.152344.261719.246094.4375.246094h3.96875c.179687 0 .34375-.09375.4375-.246094.09375-.148438.101562-.339844.023437-.5l-1.984375-3.96875c-.085937-.171875-.261719-.28125-.457031-.285156zm-.003906 1.667968 1.152344 2.304688h-2.304688zm0 0" fill-opacity=".392157"/><path d="m15.378906 6.140625c-1.371094 0-2.480468 1.105469-2.480468 2.480469s1.109374 2.480468 2.480468 2.480468c1.375 0 2.480469-1.105468 2.480469-2.480468s-1.105469-2.480469-2.480469-2.480469zm0 .992187c.824219 0 1.488282.664063 1.488282 1.488282 0 .824218-.664063 1.488281-1.488282 1.488281-.824218 0-1.488281-.664063-1.488281-1.488281 0-.824219.664063-1.488282 1.488281-1.488282zm0 0"/><path d="m13.394531 12.097656c-.273437 0-.496093.222656-.496093.496094v4.957031c0 .277344.222656.496094.496093.496094h3.96875c.277344 0 .496094-.21875.496094-.496094v-4.957031c0-.273438-.21875-.496094-.496094-.496094zm.796875.992188h2.378906c.164063 0 .296876.132812.296876.296875v3.371093c0 .164063-.132813.296876-.296876.296876h-2.378906c-.167968 0-.300781-.132813-.300781-.296876v-3.371093c0-.164063.132813-.296875.300781-.296875zm0 0" fill-opacity=".392157"/></g></svg>

<svg xmlns="http://www.w3.org/2000/svg" xmlns:xlink="http://www.w3.org/1999/xlink" width="24px" height="24px" viewBox="0 0 24 24" version="1.1">
<g id="surface1">
     <defs>
  <style id="current-color-scheme" type="text/css">
   .ColorScheme-Text { color:#424242; } .ColorScheme-Highlight { color:#eeeeee; }
  </style>
 </defs>
<path style="fill:currentColor" class="ColorScheme-Text" d="M 6.449219 13.085938 C 6.175781 13.085938 5.953125 13.308594 5.953125 13.582031 L 5.953125 17.550781 C 5.953125 17.828125 6.175781 18.046875 6.449219 18.046875 L 10.417969 18.046875 C 10.695312 18.046875 10.914062 17.828125 10.914062 17.550781 L 10.914062 13.582031 C 10.914062 13.308594 10.695312 13.085938 10.417969 13.085938 Z M 7.242188 14.078125 L 9.625 14.078125 C 9.789062 14.078125 9.921875 14.210938 9.921875 14.378906 L 9.921875 16.757812 C 9.921875 16.921875 9.789062 17.054688 9.625 17.054688 L 7.242188 17.054688 C 7.078125 17.054688 6.945312 16.921875 6.945312 16.757812 L 6.945312 14.378906 C 6.945312 14.210938 7.078125 14.078125 7.242188 14.078125 Z M 7.242188 14.078125 "/>
     <defs>
  <style id="current-color-scheme" type="text/css">
   .ColorScheme-Text { color:#424242; } .ColorScheme-Highlight { color:#eeeeee; }
  </style>
 </defs>
<path style="fill:currentColor" class="ColorScheme-Text" d="M 3.96875 2.171875 C 2.871094 2.171875 1.984375 3.058594 1.984375 4.15625 L 1.984375 8.125 L 3.96875 8.125 L 3.96875 5.148438 C 3.96875 4.597656 4.410156 4.15625 4.960938 4.15625 L 7.9375 4.15625 L 7.9375 2.171875 Z M 15.875 2.171875 L 15.875 4.15625 L 18.851562 4.15625 C 19.402344 4.15625 19.84375 4.597656 19.84375 5.148438 L 19.84375 8.125 L 21.832031 8.125 L 21.832031 4.15625 C 21.832031 3.058594 20.945312 2.171875 19.84375 2.171875 Z M 1.984375 16.0625 L 1.984375 20.03125 C 1.984375 21.132812 2.871094 22.019531 3.96875 22.019531 L 7.9375 22.019531 L 7.9375 20.03125 L 4.960938 20.03125 C 4.410156 20.03125 3.96875 19.589844 3.96875 19.039062 L 3.96875 16.0625 Z M 19.84375 16.0625 L 19.84375 19.039062 C 19.84375 19.589844 19.402344 20.03125 18.851562 20.03125 L 15.875 20.03125 L 15.875 22.019531 L 19.84375 22.019531 C 20.945312 22.019531 21.832031 21.132812 21.832031 20.03125 L 21.832031 16.0625 Z M 19.84375 16.0625 "/>
<path style=" stroke:none;fill-rule:nonzero;fill:rgb(25.882354%,25.882354%,25.882354%);fill-opacity:0.392157;" d="M 8.4375 6.121094 C 8.242188 6.121094 8.0625 6.230469 7.972656 6.40625 L 5.988281 10.375 C 5.910156 10.535156 5.917969 10.726562 6.011719 10.875 C 6.105469 11.027344 6.273438 11.121094 6.449219 11.121094 L 10.417969 11.121094 C 10.597656 11.121094 10.761719 11.027344 10.855469 10.875 C 10.949219 10.726562 10.957031 10.535156 10.878906 10.375 L 8.894531 6.40625 C 8.808594 6.234375 8.632812 6.125 8.4375 6.121094 Z M 8.433594 7.789062 L 9.585938 10.09375 L 7.28125 10.09375 Z M 8.433594 7.789062 "/>
     <defs>
  <style id="current-color-scheme" type="text/css">
   .ColorScheme-Text { color:#424242; } .ColorScheme-Highlight { color:#eeeeee; }
  </style>
 </defs>
<path style="fill:currentColor" class="ColorScheme-Text" d="M 15.378906 6.140625 C 14.007812 6.140625 12.898438 7.246094 12.898438 8.621094 C 12.898438 9.996094 14.007812 11.101562 15.378906 11.101562 C 16.753906 11.101562 17.859375 9.996094 17.859375 8.621094 C 17.859375 7.246094 16.753906 6.140625 15.378906 6.140625 Z M 15.378906 7.132812 C 16.203125 7.132812 16.867188 7.796875 16.867188 8.621094 C 16.867188 9.445312 16.203125 10.109375 15.378906 10.109375 C 14.554688 10.109375 13.890625 9.445312 13.890625 8.621094 C 13.890625 7.796875 14.554688 7.132812 15.378906 7.132812 Z M 15.378906 7.132812 "/>
<path style=" stroke:none;fill-rule:nonzero;fill:rgb(25.882354%,25.882354%,25.882354%);fill-opacity:0.392157;" d="M 13.394531 12.097656 C 13.121094 12.097656 12.898438 12.320312 12.898438 12.59375 L 12.898438 17.550781 C 12.898438 17.828125 13.121094 18.046875 13.394531 18.046875 L 17.363281 18.046875 C 17.640625 18.046875 17.859375 17.828125 17.859375 17.550781 L 17.859375 12.59375 C 17.859375 12.320312 17.640625 12.097656 17.363281 12.097656 Z M 14.191406 13.089844 L 16.570312 13.089844 C 16.734375 13.089844 16.867188 13.222656 16.867188 13.386719 L 16.867188 16.757812 C 16.867188 16.921875 16.734375 17.054688 16.570312 17.054688 L 14.191406 17.054688 C 14.023438 17.054688 13.890625 16.921875 13.890625 16.757812 L 13.890625 13.386719 C 13.890625 13.222656 14.023438 13.089844 14.191406 13.089844 Z M 14.191406 13.089844 "/>
</g>
</svg>
